icons/tokens/0xC011a73ee8576Fb46F5E1c5751cA3B9Fe0af2a6F/logo.svg

<svg xmlns="http://www.w3.org/2000/svg" width="32" height="32" viewBox="0 0 32 32">
  <defs>
    <linearGradient id="snx-a" x1="50%" x2="50%" y1="-29.386%" y2="100%">
      <stop offset="0%" stop-color="#08021E"/>
      <stop offset="100%" stop-color="#1F0777"/>
    </linearGradient>
  </defs>
  <g fill="none">
    <circle cx="16" cy="16" r="16" fill="url(#snx-a)"/>
    <path fill="#00D1FF" d="M10.7288667,12.0219333 C10.5862667,11.8587333 10.4106667,11.7769333 10.2016667,11.7769333 L5.92806,11.7769333 C5.89010667,11.7769333 5.85904667,11.7649333 5.83566,11.7409333 C5.81188667,11.7172667 5.8,11.6905333 5.8,11.6618667 L5.8,8.7818 C5.8,8.75306667 5.81188667,8.72673333 5.83566,8.70273333 C5.85904667,8.67866667 5.89010667,8.66666667 5.92806,8.66666667 L10.444,8.66666667 C11.5835333,8.66666667 12.5666667,9.13253333 13.3929333,10.0634667 L14.4898667,11.4025333 L12.3530667,14.009 L10.7288667,12.0219333 Z M18.6212667,10.0491333 C19.4475333,9.12746667 20.4352667,8.66666667 21.5843333,8.66666667 L26.0861333,8.66666667 C26.1240667,8.66666667 26.1524667,8.67633333 26.1716,8.69533333 C26.1904,8.71473333 26.2,8.7434 26.2,8.7818 L26.2,11.6618667 C26.2,11.6905333 26.1904,11.7172667 26.1716,11.7409333 C26.1524667,11.7649333 26.1240667,11.7769333 26.0861333,11.7769333 L21.8124667,11.7769333 C21.6035333,11.7769333 21.4279333,11.8587333 21.2852667,12.0219333 L18.137,15.8523333 L21.2994667,19.7114 C21.4421333,19.8652667 21.6127333,19.942 21.8124667,19.942 L26.0861333,19.942 C26.1240667,19.942 26.1524667,19.9540667 26.1716,19.9780667 C26.1904,20.0021333 26.2,20.0334667 26.2,20.0714667 L26.2,22.9515333 C26.2,22.9802667 26.1904,23.007 26.1716,23.0306 C26.1524667,23.0546667 26.1240667,23.0666667 26.0861333,23.0666667 L21.5843333,23.0666667 C20.4352667,23.0666667 19.4521333,22.6012 18.6354667,21.6698667 L16.0144,18.4731333 L13.3929333,21.6698667 C12.5666667,22.6012 11.5789333,23.0666667 10.4298,23.0666667 L5.92806,23.0666667 C5.89010667,23.0666667 5.86134667,23.0546667 5.84256,23.0306 C5.82338667,23.0066 5.81418667,22.9756 5.81418667,22.9368 L5.81418667,20.0567333 C5.81418667,20.0280667 5.82338667,20.0017333 5.84256,19.9776667 C5.86134667,19.9536667 5.89010667,19.9416667 5.92806,19.9416667 L10.2016667,19.9416667 C10.4010667,19.9416667 10.5766667,19.8602667 10.7288667,19.6966667 L13.8200667,15.924 L18.6212667,10.0491333 Z"/>
  </g>
</svg>

<svg xmlns="http://www.w3.org/2000/svg" width="32" height="32"><defs><linearGradient id="a" x1="50%" x2="50%" y1="-29.386%" y2="100%"><stop offset="0%" stop-color="#08021E"/><stop offset="100%" stop-color="#1F0777"/></linearGradient></defs><g fill="none"><circle cx="16" cy="16" r="16" fill="url(#a)"/><path fill="#00D1FF" d="M10.729 12.022a.673.673 0 00-.527-.245H5.928a.124.124 0 01-.092-.036.11.11 0 01-.036-.08v-2.88a.11.11 0 01.036-.078.123.123 0 01.092-.036h4.516c1.14 0 2.123.466 2.949 1.396l1.097 1.34-2.137 2.606-1.624-1.987zm7.892-1.973c.827-.922 1.814-1.382 2.963-1.382h4.502c.038 0 .066.01.086.028.018.02.028.048.028.087v2.88c0 .029-.01.055-.028.079-.02.024-.048.036-.086.036h-4.274a.673.673 0 00-.527.245l-3.148 3.83 3.162 3.86c.143.153.314.23.513.23h4.274c.038 0 .066.012.086.036a.148.148 0 01.028.093v2.88c0 .03-.01.056-.028.08-.02.024-.048.036-.086.036h-4.502c-1.149 0-2.132-.466-2.949-1.397l-2.62-3.197-2.622 3.197c-.826.931-1.814 1.397-2.963 1.397H5.928c-.038 0-.067-.012-.085-.036a.145.145 0 01-.029-.094v-2.88c0-.029.01-.055.029-.08.018-.023.047-.035.085-.035h4.274a.7.7 0 00.527-.245l3.091-3.773 4.801-5.875z"/></g></svg>
